X:1
T:Leaving Friday Harbour
C:John McCusker
R:waltz
I:abc2nwc
M:3/4
L:1/8
K:D
A2|"D"f2f2{gf}ed|[M:2/4][L:1/16]e2f2 A4|
[M:3/4][L:1/8]f3f ed|ef a2af|"G" (3ggg gf ed|
"Em"ef B4|"Em7".d2dcde|"A7" (3cdc BA[da][eg] |
"D"f2f2{gf}ed|[M:2/4][L:1/16]e2f2 A4|
[M:3/4][L:1/8]"D"f3f ed|ef a2af|"G" (3ggg gf ed|
"Em"ef B2Bd|"A7" (3cdc BA ef|"D"d4:|
|:dc|"A7"c2Ac eg|"D"gf a3f|"G"g2B3g|
"D"gf ef  (3def|"G"g2B3g|"D"gf ef df|
"Em"e2B2ef|"Em7"ed- dc BA|[1"A7"c2Ac eg|
"D"gf a3f|"G"g2B3g|"D"gf ef dc|"G"B2GB  (3Bcd|
"D"Ad f3a|"A7"ge cA ef|"D"d4:|[2"D"f2f2{gf}ed|
[M:2/4][L:1/16]"D"e2f2 A4|[M:3/4][L:1/8]"D"f3f ed|
ef a2af|"G" (3ggg gf ed|"Em"ef B2Bd|
"A7" (3cdc BA ef|"D"d4|]
